X:1
T: The Braes of Marr
T: 1st setting
R:Reel
Q: 232
K:D
M:4/4
L:1/8
|:A|d3f d1/2d1/2d df|eb ba be ec|dc de de fg|aA Af e2dA|
d3f d1/2d1/2d df|eb ba be ec|dc de de fg|aA Af e2dA|
FA Ac dB AF|GB AF ED FE|FA AB AB de|fd gf e2dA|
FA Ac dB AF|GB AF ED FE|FA AB AB de|fd gf e2d:|
